src/assets/image/studio_logo.svg

<svg width="90" height="65" viewBox="0 0 90 65" fill="none" xmlns="http://www.w3.org/2000/svg">
<path d="M89.9945 7.20006V0H62.3945V7.20006H72.5945V19.2002C72.5945 22.5139 75.2808 25.2002 78.5945 25.2002H79.7945V7.20006H89.9945Z" fill="#696FE6"/>
<path d="M79.7967 28.7998H72.5967V35.9999H79.7967V28.7998Z" fill="#696FE6"/>
<path d="M38.3968 35.9998C40.385 35.9998 41.9968 34.388 41.9968 32.3998C41.9968 30.4116 40.385 28.7998 38.3968 28.7998C36.4086 28.7998 34.7969 30.4116 34.7969 32.3998C34.7969 34.388 36.4086 35.9998 38.3968 35.9998Z" fill="#696FE6"/>
<path d="M62.3982 35.9993H57.5446C55.6864 35.9993 53.933 35.1384 52.7969 33.668L44.3984 22.7993H52.278L62.3982 35.9993Z" fill="#696FE6"/>
<path d="M59.3966 12.3C59.3966 15.1957 57.5966 21 52.274 22.8C51.2146 23.2082 49.7967 23.4 48.5967 23.4C47.3967 23.4 44.3968 22.8 44.3968 22.8C49.4372 21.7571 52.1969 16.8 52.1969 12.6C52.1969 9.6 50.0969 7.2 47.0967 7.19999C44.3968 7.19999 41.9968 9.37499 41.9968 12.3V25.2H40.7969C37.4832 25.2 34.7969 22.5137 34.7969 19.2V12.3C34.7969 11.76 34.8569 9.83998 34.9769 9.29998C36.2587 4.27952 41.2039 0 46.4967 0C46.8367 0 47.0567 0 47.3967 0C54.3118 0.15367 59.3966 5.66863 59.3966 12.3Z" fill="#696FE6"/>
<path d="M32.401 36H29.1119C26.7349 36 24.582 34.5967 23.6225 32.4219L16.2007 15.6L8.77946 32.4218C7.81999 34.5967 5.66703 36 3.28994 36H0.000976562L15.6012 0H16.8012L32.401 36Z" fill="#696FE6"/>
<path d="M17.4146 28L17.4147 30.5854H20L20.0265 33.4151H17.4148V36.0002H14.5849L14.585 33.4151H12V30.5854H14.585L14.5849 28H17.4146Z" fill="#FF5555"/>
<path d="M15.6247 53.5H19.0167V52.1358C19.0167 49.9266 17.2258 48.1358 15.0167 48.1358H9.5127C7.30356 48.1358 5.5127 49.9267 5.5127 52.1358V60.9998C5.5127 63.2089 7.30356 64.9998 9.5127 64.9998H15.0167C17.2258 64.9998 19.0167 63.2089 19.0167 60.9998V59.5H15.6247V61.8318H9.8727C9.32041 61.8318 8.8727 61.3841 8.8727 60.8318V52.3038C8.8727 51.7515 9.32041 51.3038 9.8727 51.3038H15.6247V53.5Z" fill="#696FE6"/>
<path d="M23.0664 60.9998C23.0664 63.2089 24.8573 64.9998 27.0664 64.9998H30.3624V61.8318H26.4264V41.3838H23.0664V60.9998Z" fill="#696FE6"/>
<path d="M34.1202 44.7438H37.4802V41.3838H34.1202V44.7438ZM34.1202 64.9998H37.4802V48.1358H34.1202V64.9998Z" fill="#696FE6"/>
<path d="M51.5359 64.9998H54.9279V52.1358C54.9279 49.9266 53.1371 48.1358 50.9279 48.1358H41.4239V64.9998H44.7839V51.3038H51.5359V64.9998Z" fill="#696FE6"/>
<path d="M59.1027 43.0638C59.1027 43.9916 59.8549 44.7438 60.7827 44.7438C61.7105 44.7438 62.4627 43.9916 62.4627 43.0638C62.4627 42.136 61.7105 41.3838 60.7827 41.3838C59.8549 41.3838 59.1027 42.136 59.1027 43.0638ZM59.1027 64.9998H62.4627V48.1358H59.1027V64.9998Z" fill="#696FE6"/>
<path d="M76.5184 53.5H79.9104V52.1358C79.9104 49.9266 78.1196 48.1358 75.9104 48.1358H70.4064C68.1973 48.1358 66.4064 49.9267 66.4064 52.1358V60.9998C66.4064 63.2089 68.1973 64.9998 70.4064 64.9998H75.9104C78.1196 64.9998 79.9104 63.2089 79.9104 60.9998V59.5H76.5184V61.8318H70.7664C70.2142 61.8318 69.7664 61.3841 69.7664 60.8318V52.3038C69.7664 51.7515 70.2142 51.3038 70.7664 51.3038H76.5184V53.5Z" fill="#696FE6"/>
</svg>

<svg width="90" height="65" fill="none" xmlns="http://www.w3.org/2000/svg"><path d="M89.995 7.2V0h-27.6v7.2h10.2v12a6 6 0 0 0 6 6h1.2v-18h10.2ZM79.797 28.8h-7.2V36h7.2v-7.2ZM38.397 36a3.6 3.6 0 1 0 0-7.2 3.6 3.6 0 0 0 0 7.2ZM62.398 36h-4.853a6 6 0 0 1-4.748-2.332l-8.399-10.869h7.88L62.398 36Z" fill="#696FE6"/><path d="M59.397 12.3c0 2.896-1.8 8.7-7.123 10.5-1.06.408-2.477.6-3.677.6-1.2 0-4.2-.6-4.2-.6 5.04-1.043 7.8-6 7.8-10.2 0-3-2.1-5.4-5.1-5.4-2.7 0-5.1 2.175-5.1 5.1v12.9h-1.2a6 6 0 0 1-6-6v-6.9c0-.54.06-2.46.18-3C36.259 4.28 41.204 0 46.497 0h.9c6.915.154 12 5.669 12 12.3ZM32.401 36h-3.29a6 6 0 0 1-5.489-3.578L16.201 15.6 8.779 32.422A6 6 0 0 1 3.29 36H.002l15.6-36h1.2l15.6 36Z" fill="#696FE6"/><path d="M16.2 28.8 12.6 36h7.2l-3.6-7.2Z" fill="#F55"/><path d="M15.625 54.856h3.392v-6.72H9.513a4 4 0 0 0-4 4V61a4 4 0 0 0 4 4h9.504v-6.752h-3.392v3.584H8.873V51.304h6.752v3.552ZM23.066 61a4 4 0 0 0 4 4h3.296v-3.168h-3.936V41.384h-3.36V61ZM34.12 44.744h3.36v-3.36h-3.36v3.36Zm0 20.256h3.36V48.136h-3.36V65ZM51.536 65h3.392V52.136a4 4 0 0 0-4-4h-9.504V65h3.36V51.304h6.752V65ZM59.103 43.064a1.68 1.68 0 1 0 3.36 0 1.68 1.68 0 0 0-3.36 0Zm0 21.936h3.36V48.136h-3.36V65ZM76.518 54.856h3.392v-6.72h-9.504a4 4 0 0 0-4 4V61a4 4 0 0 0 4 4h9.504v-6.752h-3.392v3.584h-6.752V51.304h6.752v3.552Z" fill="#696FE6"/></svg>
